assets/Backhand index pointing down/Medium-Dark/Flat/backhand_index_pointing_down_flat_medium-dark.svg

<svg width="32" height="32" viewBox="0 0 32 32" fill="none" xmlns="http://www.w3.org/2000/svg">
<path d="M21.697 7.66749C23.4231 11.8832 27.4002 13.5062 28.2752 14.4125C29.1502 15.3187 29.2484 17.0066 28.2752 18.0425C27.0174 19.3812 25.7061 19.0372 24.1814 18.1362C23.6658 17.8315 21.9627 16.6987 21.9627 16.6987L21.9627 26.9487C21.9627 29.0581 20.7008 29.99 19.5408 29.99C18.3808 29.99 16.9783 28.8237 16.9783 26.9487L16.9783 22.98C16.9783 22.98 16.367 24.2925 14.5702 24.2925C12.7733 24.2925 12.2595 22.6675 12.2595 22.6675C12.2595 22.6675 11.8767 23.519 10.2048 23.519C8.62671 23.519 7.99219 21.8671 7.99219 21.8671C7.99219 21.8671 7.39233 22.4722 5.98608 22.4722C4.90795 22.4722 3.00953 20.9487 3.00953 19.3081C3.00953 12.2176 3.71122 1.99 13.1045 1.99C15.5945 1.98 19.9709 3.45176 21.697 7.66749Z" fill="#966661"/>
<path fill-rule="evenodd" clip-rule="evenodd" d="M8.98438 23.1304C8.28982 22.642 7.99219 21.8672 7.99219 21.8672C7.99219 21.8672 7.9896 21.8698 7.98438 21.8747V18.5C7.98438 18.2239 8.20823 18 8.48438 18C8.76052 18 8.98438 18.2239 8.98438 18.5L8.98438 23.1304Z" fill="#764C49"/>
<path fill-rule="evenodd" clip-rule="evenodd" d="M13.25 23.9234C12.505 23.4439 12.2595 22.6675 12.2595 22.6675C12.2595 22.6675 12.2565 22.6741 12.25 22.6861V20.5078C12.25 20.2317 12.4739 20.0078 12.75 20.0078C13.0261 20.0078 13.25 20.2317 13.25 20.5078L13.25 23.9234Z" fill="#764C49"/>
<path fill-rule="evenodd" clip-rule="evenodd" d="M19.1714 29.9524C18.1902 29.7562 17.161 28.8029 17 27.3473V20.0336C17.0103 19.4947 17.0156 19.0067 17.0156 18.6094C17.0156 17.8125 17.9844 17.75 17.9844 18.6094L17.9844 27.6464C17.9844 29.0379 18.3531 29.5493 19.1714 29.9524Z" fill="#764C49"/>
</svg>

<svg xmlns="http://www.w3.org/2000/svg" width="32" height="32" fill="none"><path fill="#966661" d="M21.697 7.667c1.726 4.216 5.703 5.84 6.578 6.745.875.907.973 2.595 0 3.63-1.258 1.34-2.569.995-4.094.094-.515-.305-2.218-1.437-2.218-1.437v10.25c0 2.11-1.262 3.041-2.422 3.041-1.16 0-2.563-1.166-2.563-3.041V22.98s-.611 1.313-2.408 1.313-2.31-1.625-2.31-1.625-.383.851-2.055.851c-1.578 0-2.213-1.652-2.213-1.652s-.6.605-2.006.605c-1.078 0-2.976-1.523-2.976-3.164 0-7.09.701-17.318 10.095-17.318 2.49-.01 6.866 1.462 8.592 5.677Z"/><path fill="#764C49" fill-rule="evenodd" d="M8.984 23.13c-.694-.488-.992-1.263-.992-1.263l-.008.008V18.5a.5.5 0 0 1 1 0v4.63ZM13.25 23.923c-.745-.48-.99-1.255-.99-1.255l-.01.018v-2.178a.5.5 0 0 1 1 0v3.415ZM19.171 29.952c-.98-.196-2.01-1.15-2.171-2.605v-7.313c.01-.54.016-1.027.016-1.425 0-.797.968-.859.968 0v9.037c0 1.392.37 1.903 1.187 2.306Z" clip-rule="evenodd"/></svg>
